src/icons/Lantern.svg

<svg width="107" viewBox="0 0 107 267" xmlns="http://www.w3.org/2000/svg">
<path d="M50.3848 0.652313C49.0733 0.839691 45.942 2.17218 44.3361 3.19235C39.1707 6.46106 32.8276 14.2893 28.3045 22.992C27.7425 24.0746 27.1269 25.0739 26.9396 25.178C26.7254 25.3446 26.5916 26.6771 26.5381 29.9458L26.431 34.4845L25.7619 34.9009C25.3873 35.1299 24.2632 35.6504 23.2194 36.046C19.8739 37.3576 16.9298 39.0024 14.0661 41.1676C11.3094 43.2496 9.1683 45.3941 9.1683 46.0811C9.1683 46.2893 8.68655 46.7474 8.09774 47.1221C7.50893 47.476 7.02718 47.9133 7.02718 48.059C7.02718 48.2256 6.4919 49.0375 5.8228 49.8703C5.10018 50.8072 4.51137 51.8482 4.35079 52.5353C4.1902 53.1599 3.8958 53.8469 3.65492 54.0343C3.38728 54.2633 3.11965 55.0753 2.98583 56.0954C2.85201 57.0323 2.63789 57.9484 2.50407 58.1358C2.12938 58.7187 1.9688 59.8014 1.67439 63.6947C1.40675 67.3381 1.2997 70.6485 0.470015 94.1957C0.0150276 107.125 -0.0385003 122.511 0.336195 128.028C0.470015 130.089 0.71089 134.732 0.871474 138.334C1.11235 144.455 1.54057 148.993 2.20967 152.699C2.45055 154.157 2.71819 154.906 4.10991 158.529C4.96636 160.736 8.17803 165.566 9.78387 167.065C11.7109 168.897 15.1634 171.354 18.1342 172.999C20.543 174.373 26.0831 176.621 29.2413 177.537L30.9541 178.037L30.9006 183.325C30.8471 186.24 30.8739 190.945 30.9006 193.818C30.9274 196.671 30.9541 200.46 30.9809 202.209C30.9809 205.082 31.0344 205.373 31.4627 205.373C31.8909 205.373 31.9177 204.832 31.9177 196.754C31.9177 192.007 31.9979 187.989 32.0782 187.822C32.3191 187.323 33.1756 187.656 33.3629 188.301C33.4432 188.634 33.577 192.611 33.6841 197.129C33.8714 205.124 33.8982 205.373 34.4067 205.373C34.9152 205.373 34.9152 205.228 34.7279 196.629L34.5138 187.885H35.1026H35.6914L35.504 196.733L35.3167 205.582H35.9858H36.6816L36.7619 196.962C36.8155 192.215 36.9493 188.28 37.0563 188.197C37.1366 188.114 37.4846 188.114 37.779 188.197C38.341 188.322 38.341 188.405 38.341 197.15V205.977L38.903 205.831C39.4651 205.665 39.4651 205.602 39.4383 197.753C39.3848 189.738 39.4918 188.509 40.0807 188.509C40.3483 188.509 40.4554 190.3 40.5089 197.045C40.6159 204.832 40.6695 205.602 41.0977 205.936C41.5259 206.269 41.5527 206.04 41.5527 201.001C41.5527 198.086 41.633 194.089 41.74 192.132C41.8738 189.009 41.9541 188.572 42.3288 188.655C42.7303 188.738 42.7303 189.53 42.5162 197.295C42.3288 204.457 42.3556 205.873 42.65 206.019C43.667 206.518 43.6938 206.352 43.6938 201.459C43.6938 195.276 43.9882 188.926 44.2826 188.926C44.3897 188.926 44.4967 192.819 44.4967 197.566C44.4967 206.06 44.4967 206.206 45.032 206.206C45.5673 206.206 45.5673 206.06 45.5673 198.649C45.5673 190.633 45.7011 188.863 46.2364 188.967C46.504 189.009 46.6111 190.966 46.7449 197.566C46.9055 205.415 47.0393 206.81 47.6013 206.352C47.7084 206.289 47.8422 202.375 47.9225 197.67C48.0295 190.675 48.1098 189.134 48.4042 189.134C48.7254 189.134 48.7789 190.654 48.7789 197.878V206.623H49.448H50.1171V197.878C50.1171 191.403 50.1974 189.134 50.4383 189.134C50.6524 189.134 50.6792 192.777 50.5454 203.854L50.358 218.594L49.7157 219.01C48.8057 219.593 48.4578 220.405 48.8057 221.196C48.9663 221.53 49.2339 221.821 49.3945 221.821C49.5283 221.821 49.4748 221.988 49.2607 222.175C48.9128 222.487 48.7789 225.402 48.2704 241.808C47.976 252.405 47.6281 262.17 47.5478 263.523C47.4407 265.064 47.4943 265.959 47.6549 265.959C48.0028 265.959 48.1366 263.107 48.7789 242.453C49.0733 233.251 49.3677 225.673 49.4748 225.589C49.5551 225.527 49.5551 227.109 49.4748 229.108C49.3677 231.107 49.1269 239.31 48.9128 247.325C48.6986 255.341 48.4578 262.857 48.4042 264.023C48.324 265.209 48.3775 266.167 48.5113 266.167C48.886 266.167 49.1269 259.921 49.7692 233.688C49.8495 229.733 50.0368 226.276 50.1439 225.985C50.2777 225.694 50.3045 227.047 50.251 229.004C50.1707 230.94 49.9298 239.185 49.7157 247.325C49.5016 255.445 49.2875 263.023 49.2339 264.148C49.2072 265.251 49.2607 266.167 49.341 266.167C49.6354 266.167 49.8495 263.606 49.8763 259.317C49.903 256.965 50.0101 253.675 50.0904 252.01C50.1974 250.344 50.2242 252.863 50.1439 257.589C50.0636 264.023 50.1171 266.167 50.3312 266.167C50.5721 266.167 50.6524 263.919 50.6792 257.465C50.7059 252.697 50.7862 248.262 50.9201 247.638C51.0271 247.013 51.1342 251.052 51.1609 256.736C51.1609 263.003 51.2948 267 51.4286 267C51.5892 267 51.6427 261.483 51.5892 252.468C51.4821 237.082 51.6962 237.894 52.2315 255.133C52.5527 264.835 52.6597 266.584 53.0076 266.584C53.1147 266.584 53.1147 264.314 53.0076 261.545C52.9006 258.755 52.5527 250.136 52.2583 242.391C51.9638 234.646 51.7497 227.651 51.7497 226.88C51.83 224.111 52.2315 231.919 52.7668 247.221C53.3556 263.752 53.5162 266.584 53.8641 266.584C53.9711 266.584 54.0247 266.001 53.9711 265.293C53.9176 264.564 53.7303 260.317 53.5965 255.861C53.4359 251.385 53.195 244.931 53.0612 241.496C52.5527 228.754 52.4456 225.256 52.6062 225.36C52.7668 225.485 52.9541 229.566 53.8641 253.113C54.1317 260.442 54.4261 266.459 54.5064 266.542C54.5867 266.604 54.7205 266.604 54.7741 266.563C54.8008 266.521 54.5064 257.818 54.105 247.221C53.7035 236.624 53.3556 226.735 53.3556 225.235C53.3288 223.07 53.2485 222.446 52.9273 222.237C52.5794 222.008 52.5794 221.925 52.9273 221.55C53.7303 220.676 53.3823 219.468 52.2583 219.01L51.5089 218.698L51.6427 212.723C51.723 209.412 51.9103 206.685 52.0174 206.664C52.1512 206.623 52.2583 202.667 52.2583 197.857C52.2583 193.069 52.3653 189.134 52.4991 189.134C52.8738 189.134 53.0612 190.883 53.0612 194.339C53.0612 200.918 53.3823 206.414 53.7838 206.414C54.0782 206.414 54.1317 204.853 54.1317 197.774V189.134H54.9079C55.5502 189.134 55.684 189.238 55.8446 189.779C55.9249 190.133 56.0052 194.027 56.0052 198.42C56.0052 205.394 56.0587 206.394 56.4067 206.289C56.7546 206.185 56.8081 204.957 56.8617 197.587C56.9419 190.154 56.9955 189.03 57.3434 189.03C57.6913 189.03 57.7449 190.154 57.8252 197.608C57.8787 205.831 57.9054 206.206 58.3872 206.206C58.8689 206.206 58.8957 205.811 59.0831 197.566C59.2436 190.3 59.3507 188.926 59.6719 188.926C59.993 188.926 60.0198 190.175 59.9663 197.462C59.886 206.102 59.886 206.206 60.7692 206.206C60.8762 206.206 60.903 203.416 60.8762 200.023C60.8227 196.608 60.8495 192.673 60.9565 191.278C61.1171 188.947 61.1974 188.718 61.6524 188.718C62.1341 188.718 62.1609 189.009 62.1609 197.337C62.1609 205.852 62.1609 205.956 62.6962 205.852C63.2315 205.748 63.2315 205.561 63.2315 197.129C63.2315 189.613 63.285 188.509 63.6329 188.509C63.9809 188.509 64.0344 189.613 64.0344 197.15V205.79H64.7303H65.4529L65.3458 197.108C65.2388 188.947 65.2655 188.405 65.7205 188.343C66.1487 188.28 66.1755 188.759 66.1755 196.171C66.1755 204.27 66.2826 206.081 66.8178 205.936C67.2461 205.831 67.4602 202.771 67.5137 195.109C67.5405 191.362 67.6743 188.239 67.8081 188.176C67.9419 188.114 68.049 189.8 68.0757 192.194C68.1293 197.982 68.4237 205.519 68.611 205.665C68.6913 205.748 68.9857 205.748 69.2266 205.665C69.6013 205.54 69.6548 204.707 69.6548 196.837C69.6548 191.882 69.7619 188.072 69.8957 188.01C70.2436 187.843 70.4577 191.445 70.538 198.919C70.6183 205.186 70.6451 205.269 71.2071 205.332C71.7156 205.394 71.7424 205.332 71.6086 204.187C71.5283 203.52 71.3945 202.438 71.2874 201.772C71.1536 201.105 71.1804 200.522 71.3142 200.46C71.5818 200.314 71.5818 192.673 71.2874 190.508C71.1268 189.467 71.1536 188.718 71.3142 188.509C71.4748 188.301 71.5015 186.386 71.341 183.138L71.1268 178.099L73.0003 177.496C74.0441 177.163 76.1852 176.496 77.7911 175.997C83.5185 174.227 87.5064 172.124 92.6986 168.106C99.7375 162.63 101.852 158.8 103.645 148.265C104.394 143.851 104.662 141.748 105.251 135.315C106.241 124.905 106.723 100.004 106.134 90.5522C105.947 87.6791 105.652 81.1833 105.519 76.0825C105.358 70.9816 105.117 66.2971 104.983 65.6725C104.876 65.048 104.448 62.9868 104.073 61.0922C103.699 59.1976 103.244 57.1781 103.083 56.6159C102.601 54.9295 97.3823 47.3511 95.6961 45.9146C94.92 45.2275 94.2776 44.5821 94.2776 44.4364C94.2776 43.1664 89.9954 39.7311 85.4991 37.3784C83.5185 36.3375 80.7083 35.2757 79.9589 35.2757C79.4504 35.2757 79.4237 35.1091 79.3701 32.2984C79.2631 27.5099 79.0222 25.4903 78.594 25.4903C78.3799 25.4903 78.2193 25.3238 78.2193 25.1156C78.2193 24.2203 73.4285 16.4754 70.6718 12.9152C67.4602 8.81369 63.9006 5.31595 60.903 3.35889C60.0466 2.8176 58.3872 1.9848 57.2096 1.52676C55.3896 0.818878 54.7205 0.673157 53.0612 0.610687C51.9638 0.569031 50.7595 0.589874 50.3848 0.652313ZM55.3629 1.71414C59.6719 2.88004 64.4091 6.56516 69.0928 12.4155C71.1001 14.8931 74.2047 19.4942 75.8908 22.4715C77.7643 25.761 78.139 25.4071 72.92 25.2405C63.1512 24.949 44.9785 24.8449 36.869 25.0323C32.1585 25.1364 28.2778 25.1989 28.251 25.178C28.1975 25.1572 28.7595 24.0746 29.4821 22.763C35.7449 11.2496 43.1585 3.40054 49.3677 1.73495C51.1609 1.2561 53.5965 1.2561 55.3629 1.71414ZM51.1074 226.235C51.0271 226.381 50.9736 226.276 50.9736 225.985C50.9736 225.694 51.0271 225.589 51.1074 225.714C51.1609 225.86 51.1609 226.11 51.1074 226.235Z"/>
</svg>

<svg width="107" viewBox="0 0 107 267" xmlns="http://www.w3.org/2000/svg">
<path d="M50.4.7c-1.3.1-4.5 1.5-6.1 2.5-5.1 3.3-11.5 11.1-16 19.8-.6 1.1-1.2 2.1-1.4 2.2-.2.1-.3 1.5-.4 4.7l-.1 4.6-.6.4c-.4.2-1.5.8-2.6 1.1-3.3 1.4-6.3 3-9.1 5.2-2.8 2-4.9 4.2-4.9 4.9 0 .2-.5.6-1.1 1s-1.1.8-1.1 1c0 .1-.5.9-1.2 1.8s-1.3 1.9-1.4 2.6c-.2.7-.5 1.3-.7 1.5-.3.3-.6 1.1-.7 2.1-.1.9-.4 1.8-.5 2-.4.6-.5 1.7-.8 5.6-.3 3.6-.4 6.9-1.2 30.5C0 107.1 0 122.5.3 128c.2 2.1.4 6.7.6 10.3.2 6.2.6 10.7 1.3 14.4.3 1.5.5 2.2 1.9 5.8.9 2.2 4.1 7.1 5.7 8.6 1.9 1.8 5.4 4.3 8.3 5.9 2.4 1.4 8 3.6 11.1 4.5l1.8.5-.1 5.3c-.1 2.9 0 7.6 0 10.5 0 2.9.1 6.7.1 8.4 0 2.9 0 3.2.5 3.2.4 0 .4-.6.4-8.6 0-4.8.1-8.8.2-9 .2-.5 1.1-.1 1.3.5 0 .3.2 4.3.3 8.8.2 8 .2 8.3.7 8.3s.5-.2.3-8.8l-.2-8.7h.6.6l-.2 8.8-.2 8.9h.7.7l.1-8.6c0-4.8.1-8.7.3-8.8 0-.1.4-.1.7 0 .5.1.5.2.5 9V206l.6-.2c.6-.1.6-.2.5-8 0-8.1.1-9.3.7-9.3.2 0 .4 1.8.4 8.5.1 7.8.2 8.6.6 8.9.4.4.5.1.5-4.9 0-2.9 0-6.9.1-8.9.2-3.1.3-3.5.6-3.4.4 0 .4.8.2 8.6-.2 7.2-.1 8.6.1 8.7 1.1.5 1.1.4 1.1-4.5 0-6.2.3-12.6.6-12.6.1 0 .2 3.9.2 8.7 0 8.5 0 8.6.5 8.6.6 0 .6-.1.6-7.6 0-8 .1-9.7.6-9.6.3 0 .4 2 .5 8.6.2 7.8.3 9.2.9 8.8.1-.1.2-4 .3-8.7.1-7 .2-8.6.5-8.6.3 0 .4 1.6.4 8.8v8.7h.6.7v-8.7c0-6.5.1-8.8.3-8.8.3 0 .3 3.7.1 14.8 1.7 2.7 1.8-1.2 1.8-6 0-4.8.1-8.8.2-8.8.4 0 .6 1.8.6 5.2 0 6.6.3 12.1.7 12.1.3 0 .3-1.5.3-8.6v-8.7h.8c.7 0 .8.1.9.7.1.3.2 4.2.2 8.6 0 7 .1 8 .4 7.9.4-.1.4-1.3.5-8.7 0-7.4.1-8.6.4-8.6.4 0 .4 1.2.5 8.6.1 8.2.1 8.6.6 8.6s.5-.4.7-8.6c.1-7.3.3-8.7.6-8.7.3 0 .3 1.3.3 8.6-.1 8.6-.1 8.7.8 8.7.1 0 .1-2.8.1-6.2-.1-3.4-.1-7.3.1-8.7.1-2.4.2-2.6.7-2.6.4 0 .5.3.5 8.6 0 8.6 0 8.7.5 8.6.5-.2.5-.3.5-8.8 0-7.5.1-8.6.4-8.6.4 0 .4 1.1.4 8.7v8.6h.7.8l-.2-8.7c-.1-8.2 0-8.7.4-8.8.4 0 .5.5.5 7.9 0 8.1.1 9.9.6 9.7.4-.1.7-3.1.7-10.8 0-3.7.2-6.9.3-6.9.1-.1.2 1.6.3 4 0 5.8.3 13.3.5 13.5.1 0 .4 0 .6 0 .4-.2.5-1 .5-8.9 0-4.9.1-8.7.2-8.8.3-.2.6 3.4.6 10.9.1 6.3.1 6.4.7 6.4.5.1.5 0 .4-1.1-.1-.7-.2-1.8-.3-2.4-.1-.7-.1-1.3 0-1.3.3-.2.3-7.8 0-10-.2-1-.1-1.8 0-2 .2-.2.2-2.1 0-5.4l-.2-5 1.9-.6c1-.3 3.2-1 4.8-1.5 5.7-1.8 9.7-3.9 14.9-7.9 7-5.5 9.2-9.3 10.9-19.8.8-4.4 1.1-6.6 1.7-13 .9-10.4 1.4-35.3.8-44.7-.2-2.9-.4-9.4-.6-14.5-.1-5.1-.4-9.8-.5-10.4-.1-.7-.6-2.7-.9-4.6-.4-1.9-.9-3.9-1-4.5-.5-1.7-5.7-9.2-7.4-10.7-.8-.7-1.4-1.3-1.4-1.5 0-1.2-4.3-4.7-8.8-7-2-1.1-4.8-2.1-5.5-2.1-.5 0-.6-.2-.6-3-.1-4.8-.4-6.8-.8-6.8-.2 0-.4-.2-.4-.4 0-.9-4.8-8.6-7.5-12.2-3.2-4.1-6.8-7.6-9.8-9.5-.9-.6-2.5-1.4-3.7-1.9-1.8-.7-2.5-.8-4.1-.9-1.1 0-2.3 0-2.7.1Zm5 1c4.3 1.2 9 4.9 13.7 10.7 2 2.5 5.1 7.1 6.8 10.1 1.9 3.3 2.2 2.9-3 2.7-9.7-.3-27.9-.4-36-.2-4.7.1-8.6.2-8.6.2-.1 0 .5-1.1 1.2-2.4C35.7 11.2 43.2 3.4 49.4 1.7c1.8-.4 4.2-.4 6 0Z"/>
</svg>
